X:1
T:Title
%%score { ( 1 4 ) | ( 2 3 ) }
L:1/8
M:6/8
K:D
V:1 treble nm="Grand Piano"
V:4 treble 
V:2 bass 
V:3 bass 
V:1
 z3 z2[Q:1/4=100] [FA] | [Fd]2 F GAB | A2 F D2 D | [CE][CE][DF] [EG][FA][GB] | %4
[M:5/8] [FA]-[FA]- [FA]3 |[M:1/8] [FA] |[M:3/4] [Fd]2 FG AB | A2 F D2 D | %8
 [B,E]F [B,EG] [A,^DF]2[K:bass] [G,CE] | [F,D]4- [F,D][F,D] | [CE]2[K:treble] [DF][EG] F[A,CE] | %11
 [A,DF]2 [A,EG] [DFA]2 [DFA] | z2 z B z2 | [EAc]4- [EAc][CGA] | [DFd]2 [Fd] [Fd]2 F | %15
[M:7/8] G2 A B3 B |[M:3/4] A2 A [CEA]2 [EGA] |[M:5/8] [FA]-[FA]- [FA]3 |[M:1/8] [FA]/[FA]/ | %19
[M:3/4] [Fd]2 FG AB | A2 A B2 [Gc] |[M:7/8] [Ge]3 [Fd]3 [FA] |[M:3/4] B2 Bd- d/c/B | [FA]6 | %24
 G2 G A2 E | G3 F2 [FA]/[FA]/ | c4- cc | e4- e[Fd] |[M:5/8] [Fd]-[Fd]- [Fd]3 |] %29
V:2
 z3 z2 [D,A,] | z3 .B,3 | [D,F,D]2 [D,A,D] [D,F,]2 [D,F,] | [A,,A,]2 [A,,A,] [A,,A,]2 [A,,A,] | %4
[M:5/8] [D,A,]-[D,A,]- [D,A,]3 |[M:1/8] [D,A,] |[M:3/4] z2 z B, z2 | %7
 [D,F,D]2 [D,A,D] [D,F,]2 [D,F,] | z ^D G,, A,,2 A,, | D,4- D,D, | [A,,A,]2 .[A,,A,]2 DA,, | %11
 D,2 D, D,2 D, | G,2 .G,2[K:treble] c[K:bass]E, | A,4- A,A, | D,2 [D,A,] [D,A,]2 [D,A,D] | %15
[M:7/8] [E,A,C]2 [F,D][K:treble] [G,D]3 [^G,D=F] |[M:3/4] [A,DF]2 [A,DF][K:bass] A,,2 A,, | %17
[M:5/8] [D,D]-[D,D]- [D,D]3 |[M:1/8] [D,D]/[D,D]/ |[M:3/4] [D,A,]2 [D,A,D][D,B,D] [D,F,D][D,G,D] | %20
 [D,F,D]2 [F,D] [G,DG]2 [E,A,] |[M:7/8] [C,A,]3 [D,A,]3 [D,D] | %22
[M:3/4][K:treble] [G,DG]2 [G,DG][G,B,G]- [G,B,G]/[G,CG]/[G,DG] | [D,D]6 | %24
 [A,E]2 [A,E] [A,CE]2 [A,C] | [A,CE]3 [D,A,D]2 [D,D]/[D,D]/ | [A,EG]4- [A,EG][A,EG] | %27
 [A,CG]4- [A,CG][K:bass][D,A,] |[M:5/8] [D,A,D]-[D,A,D]- [D,A,D]3 |] %29
V:3
 x6 | [D,A,]2 [D,A,D] [D,D]-[D,A,D][D,G,D] | x6 | x6 |[M:5/8] x5 |[M:1/8] x | %6
[M:3/4] [D,A,]2 [D,A,D][D,D]- [D,A,D][D,G,D] | x6 | [G,,G,]2 z2 z2 | x6 | z2 z .[A,,A,]3 | x6 | %12
 z2 z .E,3[K:treble][K:bass] | x6 | x6 |[M:7/8] x3[K:treble] x4 |[M:3/4] x3[K:bass] x3 | %17
[M:5/8] x5 |[M:1/8] x |[M:3/4] x6 | x6 |[M:7/8] x7 |[M:3/4][K:treble] x6 | x6 | x6 | x6 | x6 | %27
 x5[K:bass] x |[M:5/8] x5 |] %29
V:4
 x6 | x6 | x6 | x6 |[M:5/8] x5 |[M:1/8] x |[M:3/4] x6 | x6 | x5[K:bass] x | x6 | x2[K:treble] x4 | %11
 x6 | [DGB]2 [DGB] [E^G]2 [EGd] | x6 | x6 |[M:7/8] x7 |[M:3/4] x6 |[M:5/8] x5 |[M:1/8] x | %19
[M:3/4] x6 | x6 |[M:7/8] x7 |[M:3/4] x6 | x6 | x6 | x6 | x6 | x6 |[M:5/8] x5 |] %29

